X:1
T:[ID 3-19a]
T:[ID 3-19a]
T:Bezeichnung standardisiert: Menuet Prinz Ferdinand ; Menuet
T:Urheber unbekannt Datum in der hier transkribierten schriftlichen Quelle: 1773
C:Urheber unbekannt
C:Datum in der hier transkribierten schriftlichen Quelle: 1773
L:1/8
M:3/4
K:G
V:1 treble 
V:1
 d3 e d2 | d3 e d2 | d2 efge | d2 c2 B2 | d2 efge | d2 c2 B2 | D2 c2 B2 | A6 :: A2 (3ABc (3ABc | %9
 Tc4 B2 | d2 de_fd | e4 d2 | c2 ec A2 | B2 dB G2 | AcBAGF | G6 :| %16

